dist/img/sprites/hSite.svg

<svg width="32" height="32" viewBox="0 0 32 32" fill="none" xmlns="http://www.w3.org/2000/svg"><g clip-path="url(#clip0_730_5357)"><path d="M15.99 0C9.73 0 4.01 3.7 1.42 9.42.48 11.5 0 13.71 0 15.99 0 24.82 7.17 32 15.99 32S32 24.82 32 15.99C32 7.16 24.82 0 15.99 0zm5.48 8.89h-4.62V2.71c1.99 1.78 3.54 3.86 4.62 6.18zm-4.62 1.71h5.3c.61 1.75.94 3.53.97 5.28.04 1.82-.22 3.61-.76 5.34h-5.52V10.6h.01zm0 12.33h4.87c-1.06 2.41-2.7 4.56-4.87 6.39v-6.39zm7.29-1.71c.5-1.76.73-3.56.7-5.37-.04-1.75-.34-3.51-.88-5.26h5.29c.7 1.72 1.06 3.54 1.06 5.39 0 1.85-.33 3.57-.98 5.23h-5.17l-.02.01zm-.81-12.33c-1.09-2.61-2.7-4.94-4.79-6.95 4.18.75 7.78 3.28 9.89 6.95h-5.1zm-4.71 21.16c2.21-2.04 3.87-4.43 4.93-7.11h4.96a14.168 14.168 0 01-9.89 7.11zm-8.33-7.11h4.85v6.38c-2.15-1.83-3.78-3.97-4.85-6.38zm4.85-1.71H9.65a16.4 16.4 0 01-.76-5.34c.04-1.76.36-3.52.94-5.23l.02-.06h5.29v10.63zm0-12.33h-4.61c1.07-2.31 2.62-4.38 4.61-6.17V8.9zm-6.47 0H3.59c2.1-3.68 5.67-6.2 9.86-6.96-2.09 2-3.7 4.34-4.79 6.95l.01.01zm-5.9 1.71h5.28c-.54 1.72-.83 3.48-.87 5.26-.04 1.8.2 3.61.7 5.37H2.69c-.65-1.66-.98-3.42-.98-5.23 0-1.81.36-3.67 1.06-5.39v-.01zm5.69 12.33c1.06 2.69 2.72 5.08 4.92 7.11-4.21-.78-7.8-3.36-9.88-7.11h4.96z" fill="#4B8125"/></g><defs><clipPath id="clip0_730_5357"><path fill="#fff" d="M0 0h32v32H0z"/></clipPath></defs></svg>

<svg width="32" height="32" viewBox="0 0 32 32" fill="none" xmlns="http://www.w3.org/2000/svg">
<g clip-path="url(#clip0_730_5357)">
<path d="M15.99 0C9.73 0 4.01 3.7 1.42 9.42C0.48 11.5 0 13.71 0 15.99C0 24.82 7.17 32 15.99 32C24.81 32 32 24.82 32 15.99C32 7.16 24.82 0 15.99 0ZM21.47 8.89H16.85V2.71C18.84 4.49 20.39 6.57 21.47 8.89ZM16.85 10.6H22.15C22.76 12.35 23.09 14.13 23.12 15.88C23.16 17.7 22.9 19.49 22.36 21.22H16.84V10.6H16.85ZM16.85 22.93H21.72C20.66 25.34 19.02 27.49 16.85 29.32V22.93ZM24.14 21.22C24.64 19.46 24.87 17.66 24.84 15.85C24.8 14.1 24.5 12.34 23.96 10.59H29.25C29.95 12.31 30.31 14.13 30.31 15.98C30.31 17.83 29.98 19.55 29.33 21.21H24.16L24.14 21.22ZM23.33 8.89C22.24 6.28 20.63 3.95 18.54 1.94C22.72 2.69 26.32 5.22 28.43 8.89H23.34H23.33ZM18.62 30.05C20.83 28.01 22.49 25.62 23.55 22.94H28.51C26.43 26.69 22.84 29.28 18.62 30.05ZM10.29 22.94H15.14V29.32C12.99 27.49 11.36 25.35 10.29 22.94ZM15.14 21.23H9.65C9.1 19.5 8.85 17.7 8.89 15.89C8.93 14.13 9.25 12.37 9.83 10.66L9.85 10.6H15.14V21.23ZM15.14 8.9H10.53C11.6 6.59 13.15 4.52 15.14 2.73V8.9ZM8.67 8.9H3.59C5.69 5.22 9.26 2.7 13.45 1.94C11.36 3.94 9.75 6.28 8.66 8.89L8.67 8.9ZM2.77 10.61H8.05C7.51 12.33 7.22 14.09 7.18 15.87C7.14 17.67 7.38 19.48 7.88 21.24H2.69C2.04 19.58 1.71 17.82 1.71 16.01C1.71 14.2 2.07 12.34 2.77 10.62V10.61ZM8.46 22.94C9.52 25.63 11.18 28.02 13.38 30.05C9.17 29.27 5.58 26.69 3.5 22.94H8.46Z" fill="#4B8125"/>
</g>
<defs>
<clipPath id="clip0_730_5357">
<rect width="32" height="32" fill="white"/>
</clipPath>
</defs>
</svg>
